X:19
T:KLTBNDR- the Kettlebender
S:from 'The Muses Delight', 1754
Q:1/4=120
L:1/4
M:C
K:C
g|{f/}e3/2 d/cc|(B/c/)ddf|{f/}e3/2 d/cc|c3/2 d/ (e/f/) .g/ g/|\
ggaa|ffg g/ f/|eeff/ e/|c3/2 d/ (e/f/)g|\
"Chorus:"(cc)(BB)|AAGF|Egg2|e/c/ f/d/ (c/4B/4c/)|]

